assets/images/script/p-4-bot.svg

<svg fill="none" height="239" viewBox="0 0 238 239" width="238" xmlns="http://www.w3.org/2000/svg"><path d="m119.76 4.8271c2.061 0 3.459-.16164 5.376-.80068 3.075-1.02487-5.674-.22229-6.405-.22876-21.1251-.18695-42.0971-1.48079-63.2537-.57191-17.7597.76294-35.119 3.70511-52.73019 5.66191-1.06869.11874 4.50765.86272 5.7191 1.42974 22.07079 10.331 38.60879 36.0642 50.78569 55.9901 22.364 36.5955 38.7896 75.1275 42.4931 118.2715 1.136 13.231 2.387 54.716-21.7899 51.588-10.1593-1.315-17.1677-8.792-21.9614-16.873-6.8806-11.6-12.4844-25.017-14.9841-38.318-5.1771-27.55 5.518-70.697 28.7099-85.5674 12.964-8.3125 36.7805 3.5914 47.0115 19.4544 5.929 7.729 8.782 17.844 11.552 26.994 5.055 16.697 8.488 33.923 14.298 50.385 2.472 7.005 13.961 48.498 26.537 42.714 5.389-2.479 7.63-10.343 9.493-15.328 4.006-10.715 7.504-31.542 12.525-41.855 7.23-14.85 19.076-39.188 36.831-43.923 3.025-.807 5.09-.444 5.09 2.745" stroke="#000" stroke-linecap="round" stroke-width="5"/></svg>

<svg width="238" height="239" viewBox="0 0 238 239" fill="none" xmlns="http://www.w3.org/2000/svg">
<path d="M119.76 4.8271C121.821 4.8271 123.219 4.66546 125.136 4.02642C128.211 3.00155 119.462 3.80413 118.731 3.79766C97.6059 3.61071 76.6339 2.31687 55.4773 3.22575C37.7176 3.98869 20.3583 6.93086 2.74711 8.88766C1.67842 9.0064 7.25476 9.75038 8.46621 10.3174C30.537 20.6484 47.075 46.3816 59.2519 66.3075C81.6159 102.903 98.0415 141.435 101.745 184.579C102.881 197.81 104.132 239.295 79.9551 236.167C69.7958 234.852 62.7874 227.375 57.9937 219.294C51.1131 207.694 45.5093 194.277 43.0096 180.976C37.8325 153.426 48.5276 110.279 71.7195 95.4086C84.6835 87.0961 108.5 99 118.731 114.863C124.66 122.592 127.513 132.707 130.283 141.857C135.338 158.554 138.771 175.78 144.581 192.242C147.053 199.247 158.542 240.74 171.118 234.956C176.507 232.477 178.748 224.613 180.611 219.628C184.617 208.913 188.115 188.086 193.136 177.773C200.366 162.923 212.212 138.585 229.967 133.85C232.992 133.043 235.057 133.406 235.057 136.595" stroke="black" stroke-width="5" stroke-linecap="round"/>
</svg>
